X:0041
M:6/8
L:1/8
3/8=120
K:D
f/e/|d2A (B/c/d)A|d3 A2B|=cdc cGE   |=c3 E2
f/e/|d2A  B/c/dA |d3 A2G| FGF EDE   | D3 D2:|
    |AdA  FDF    |A3 a2g| fdf ece   | d3 d2:|

